X: 1899
T: Uzağa Gitme Yakına Gelme
C: Bilge Özgen
O: Turkey
F: http://compmusic.upf.edu/node/140
N: nikriz--fantezi--yuruksemai_ii--uzaga_gitme--bilge_ozgen
N: makam= nikriz
N: form= fantezi
N: usul= yuruksemai_ii = 6/8
M: 6/8
L: 1/16
K: C _7/8B ^3/4f ^c 
Q: 1/4=180
%%MIDI tuningsystem comma53
g3=f e2f3ed2  | e3d c2d3c_1/4B2  | c2d2 c2d3c_1/4B2  | \
w:  ARANAĞME  |   |   | 
dcdc dcd2 e2f2  | 
w:   | 
g3=f e2f3ed2  | e3d c2d3cB2  | c3B A2B3AG2  | \
w:   |   |   | 
BABA BAG4ef  | 
w:   | 
g3=f e2f3ed2  | e3d c2d3c_1/4B2  | c2d2 c2d3c_1/4B2  | \
w:  ARANAĞME  |   |   | 
dcdc dcd2 e2f2  | 
w:   | 
g3=f e2f3ed2  | e3d c2d3cB2  | c3B A2B3AG2  | \
w:   |   |   | 
BABA BAG6  | 
w:   | 
d2d2 d2c4_1/4B2  | d2d2 d2c4_1/4B2  | \
w:  U za ğa  git me    |  Ya kı na  gel me    | 
g2=f2 e2f4d2  | g2=f2 e2f2 d4  | {d}=c2c4B4A2  | 
w:  Bü tü nü  böl me    |  Ya rı mı  ye me    |  *  A man   | 
d2{e}d2 c2d4z2  | B2B2 A2B4z2  | A2B4B2 A2G2  | \
w:  ağ *  *  la ma    |  Of  a man_ of    |  Sa kın  gül *  me    | 
G2d2 d2d4c2  | d2c8B2  | 
w:  *  De di ler  de  |  di ler   De  | 
d2c8B2  | d2c8d2  | B2A2 B2d4B2  | A8-A2B2  | \
w:  di ler  de  |  di ler   Be  |  ni  de li  et ti  |  ler   Be  | 
B2A2 B2d4B2  | A6d2 e2f2  | 
w:  ni  de li  et ti  |  ler   SAZ  | 
g2g4=f2 e2d2  | g6g2 f2e2  | a4 g2=f2 e2f2  | \
w:  Me rak lı  ol  |  ma    |  Her  şe yi  sor  | 
d6d2 e2f2  | g4 g2g2 =f2e2  | 
w:  ma   SAZ  |  Ken di ni  ko ru    | 
=f2e2 f2f2 e2d2  | e4 d2g2 =f2e2  | d8-d2z2  | \
w:  Of  a man  of    |  Kim se yi  kır  |  ma    | 
=c2c4B2 A4  | d2{e}d2 c2d4z2  | 
w:  Do kun ma  al  |  ma    | 
B2B2 A2B6  | A2B4B2 A4  | G2d2 d2d4c2  | \
w:  Of  a man_ of    |  Se vil me  sar  |  ma   De di ler  de  | 
d2c8B2  | d2c8B2  | d2c8d2  | 
w:  di ler   De  |  di ler  de  |  di ler   Be  | 
B2A2 B2d4B2  | G8-G2A2  | B2A2 B2d4B2  | G12  | \
w:  ni  de li  et ti  |  ler   Be  |  ni  de li  et ti  |  ler    | 
g3=f e2f3ed2  | e3d c2d3c_1/4B2  | 
w:  ARANAĞME  |   | 
c2d2 c2d3c_1/4B2  | dcdc dcd2 e2f2  | \
w:   |   | 
g3=f e2f3ed2  | 
w:   | 
e3d c2d3cB2  | c3B A2B3AG2  | BABA BAG4ef  | 
w:   |   |   | 
g3=f e2f3ed2  | e3d c2d3c_1/4B2  | c2d2 c2d3c_1/4B2  | \
w:  ARANAĞME  |   |   | 
dcdc dcd2 e2f2  | 
w:   | 
g3=f e2f3ed2  | e3d c2d3cB2  | c3B A2B3AG2  | \
w:   |   |   | 
BABA BAG6  | 
w:   | 
d2d2 d2c4_1/4B2  | d2d2 d2c4_1/4B2  | \
w:  Ya la nı  duy ma    |  Ça la nı  gör me    | 
g2=f2 e2f4d2  | g2=f2 e2f4d2  | =c2c4B2 A4  | 
w:  Gü ze li  öv me    |  Kı na ma  kız ma    |  Ta kıl ma  faz  | 
d2d2 c2d4z2  | B2B2 A2B6  | B2B2 B2B2 A2G2  | \
w:  la    |  Of  a man_ of    |  Ka fa nı  boz *  ma    | 
G2d2 d2d4c2  | d2c8B2  | 
w:  *  De di ler  de  |  di ler   De  | 
d2c8B2  | d2c8d2  | B2A2 B2d4B2  | G8-G2B2  | \
w:  di ler  de  |  di ler   Be  |  ni  de li  et ti  |  ler   Be  | 
B2A2 B2d4B2  | A6d2 e2f2  | 
w:  ni  de li  et ti  |  ler   SAZ  | 
g2g4=f2 e2d2  | g6g2 f2e2  | a4 g2=f2 e2f2  | \
w:  Me rak lı  ol  |  ma    |  Her  şe yi  sor  | 
d6d2 e2f2  | g4 g2g2 =f2e2  | 
w:  ma   SAZ  |  Ken di ni  ko ru    | 
=f2e2 f2f2 e2d2  | e4 d2g2 =f2e2  | d8-d2z2  | \
w:  Of  a man  of    |  Kim se yi  kır  |  ma    | 
=c2c4B2 A4  | d2{e}d2 c2d4z2  | 
w:  Do kun ma  al  |  ma    | 
B2B2 A2B6  | A2B4B2 A4  | G2d2 d2d4c2  | \
w:  Of  a man_ of    |  Se vil me  sar  |  ma   De di ler  de  | 
d2c8B2  | d2c8B2  | d2c8d2  | 
w:  di ler   De  |  di ler  de  |  di ler   Be  | 
B2A2 B2d4B2  | G8-G2A2  | B2A2 B2d4B2  | G12  | |


